X:310
T:Steeple Chase Reel
M:4/4
L:1/8
Z:abc by Bruce Osborne - bosborne@kos.net
K:Am
e2 cA e2 cA|Bde^f gedB|G2 BG dGBG|Bde^f g2 ^fg|!
e2 cA e2 cA|Bde^f gedB|G2 BG dGBG|AcBG A4:|!
|:a2 a^f g^fed|cde^f gedB|G2 BG dGBG|Bde^f g2 ^fg|!
aba^f g^fed|cde^f gedB|G2 BG dGBG|AcBG A4:|!
